X: 16372
T: Gus Jordan's
R: reel
M: 4/4
K: Adorian
A2eA AGEF|G2dG GEDG|A2ea agef|gedB BAAG|
A2eA AGEF|G2dG GEDG|A2ea agef|gedB BA A2|
eaag efge|f2eA defd|eaag eaag|fdef g4|
(3efg ab c'bag|fdef g3e|dggf g2dg|g2ag gedB||

